X: 34
T: Lucis creator optime
N: Derived from Ort2006-Lucis_creator_optime.krn
C: Marbrianus de Orto
%%abc-version 2.0
%%abcx-abcm2ps-target-version 5.9.1 (29 Sep 2008)
%%abc-creator hum2abc beta
%%abcx-conversion-date 2019/02/17 07:28:38
%%abc-edited-by Jesse Rodin
%%abc-edited-by Jesse Rodin 8/7/2013
%%abcx-initial-encoding-date 2013/08/07/
%%humdrum-veritas 756121464
%%humdrum-veritas-data 4085822131
%%linebreak <none>
%%barnumbers 0
L: 1/4
M: 4/2
Q: 1/2=120
%%staves [1 2 3 4]
V: 1 clef=treble
V: 2 clef=treble-8
V: 3 clef=treble-8
V: 4 clef=bass
K: C
[V:1] z8 | 
[V:2] z8 | 
[V:3] C4D4 | 
[V:4] z8 | 
[V:1] z8 | 
[V:2] C4D4 | 
[V:3] E2G4F2 | 
[V:4] z8 | 
[V:1] C8 | 
[V:2] E2F3GA2- | 
[V:3] E2A3GF2- | 
[V:4] z8 | 
[V:1] D4E4 | 
[V:2] A2B2c4 | 
[V:3] F2EDC4 | 
[V:4] z8 | 
[V:1] G6F2 | 
[V:2] B8 | 
[V:3] z2D2E2D2 | 
[V:4] G,,8 | 
[V:1] E4D4- | 
[V:2] z2c2B2d2 | 
[V:3] C4D4 | 
[V:4] A,,4B,,4 | 
[V:1] D8- | 
[V:2] c2B4A2- | 
[V:3] G,4z4 | 
[V:4] D,6C,2 | 
[V:1] D4E4 | 
[V:2] A2^G2A4- | 
[V:3] z4C4 | 
[V:4] B,,4A,,4- | 
[V:1] F2E3DD2- | 
[V:2] A2c4A2- | 
[V:3] D2C4D2 | 
[V:4] A,,8- | 
[V:1] D2^C2D4 | 
[V:2] A2A2D2G2- | 
[V:3] E4z2D2 | 
[V:4] A,,4B,,4 | 
[V:1] z8 | 
[V:2] GABcd2c2 | 
[V:3] E2G4A2 | 
[V:4] C,2B,,3A,,A,,2- | 
[V:1] z4C4- | 
[V:2] d4z2e2- | 
[V:3] B4A4 | 
[V:4] A,,2^G,,2A,,4 | 
[V:1] C4E4 | 
[V:2] e2A3GE2 | 
[V:3] z2c3BAG | 
[V:4] z8 | 
[V:1] F4G4- | 
[V:2] z2D2E2G2- | 
[V:3] A4z2D2 | 
[V:4] z4G,,4- | 
[V:1] G4z4 | 
[V:2] GFD2d4 | 
[V:3] E2G3FD2 | 
[V:4] G,,4B,,4 | 
[V:1] z4A4 | 
[V:2] cBAGF2D2 | 
[V:3] E4D4 | 
[V:4] C,4D,4- | 
[V:1] A4G3A | 
[V:2] z2A2c2B2 | 
[V:3] F4E3F | 
[V:4] D,4z4 | 
[V:1] B2c2B2A2- | 
[V:2] e4e4- | 
[V:3] G2A2G2c2 | 
[V:4] z4E,4 | 
[V:1] A2G2A4 | 
[V:2] e4z2d2- | 
[V:3] B4z2A2- | 
[V:4] E,4D,3E, | 
[V:1] A2_B2A2G2- | 
[V:2] d2d4e2 | 
[V:3] A2G2A2B2 | 
[V:4] F,2G,2F,2E,2- | 
[V:1] G2F2G3F | 
[V:2] c2d2B2c2- | 
[V:3] G2A2G2C2- | 
[V:4] E,2D,2E,4 | 
[V:1] E2D2C2D2 | 
[V:2] cBA2G2A2 | 
[V:3] C2D2E2F2 | 
[V:4] E,2F,2E,2D,2- | 
[V:1] E4F4 | 
[V:2] B2c2A4 | 
[V:3] G4F4 | 
[V:4] D,2C,2D,3C, | 
[V:1] z2E2G2FE | 
[V:2] G2A2_B2AG | 
[V:3] z8 | 
[V:4] B,,2A,,2G,,2A,,2 | 
[V:1] D4E4 | 
[V:2] F4E2G2- | 
[V:3] z4G3A | 
[V:4] B,,4C,4 | 
[V:1] z8 | 
[V:2] GFDEF3G | 
[V:3] Bcd3cA2- | 
[V:4] z2B,,2D,2C,B,, | 
[V:1] C4D4 | 
[V:2] A4z2B2- | 
[V:3] ABc2B2G2- | 
[V:4] A,,4B,,4 | 
[V:1] E6F2 | 
[V:2] B2c4A2 | 
[V:3] G2C4D2 | 
[V:4] z8 | 
[V:1] G3FE4 | 
[V:2] B2d4^c2 | 
[V:3] z4A4 | 
[V:4] G,,4A,,4 | 
[V:1] D4z2E2 | 
[V:2] d6c2 | 
[V:3] D4G4 | 
[V:4] B,,6C,2 | 
[V:1] F6ED | 
[V:2] A4z2D2 | 
[V:3] z2A4^G2 | 
[V:4] D,3C,B,,4 | 
[V:1] C4D4 | 
[V:2] E4F2G2- | 
[V:3] A4z2D2 | 
[V:4] A,,4z2B,,2 | 
[V:1] G,2C3DE2- | 
[V:2] G2C2c4 | 
[V:3] EFGAG4 | 
[V:4] C,6B,,A,, | 
[V:1] E2D4^C2 | 
[V:2] B4A4- | 
[V:3] G3FE4 | 
[V:4] G,,4A,,4 | 
[V:1] D8 ||  
[V:2] A8 ||  
[V:3] D8 ||  
[V:4] D,,8 ||  
[V:1]  [K:C] [K:clef=treble][M:4/2]z8 | 
[V:2]  [K:C] [K:clef=treble-8][M:4/2]C4D4 | 
[V:3]  [K:C] [K:clef=treble-8][M:4/2]z8 | 
[V:4]  [K:C] [K:clef=bass][M:4/2]z8 | 
[V:1] z8 | 
[V:2] E2G4F2 | 
[V:3] z8 | 
[V:4] C,4D,4 | 
[V:1] C8 | 
[V:2] G4A4 | 
[V:3] z8 | 
[V:4] E,4F,4- | 
[V:1] D8 | 
[V:2] z2B4B2 | 
[V:3] z8 | 
[V:4] F,2G,3F,E,D, | 
[V:1] E8 | 
[V:2] c8 | 
[V:3] C8 | 
[V:4] C,4A,,4 | 
[V:1] G8 | 
[V:2] B8 | 
[V:3] D8 | 
[V:4] G,,8 | 
[V:1] G6F2 | 
[V:2] G8 | 
[V:3] E8 | 
[V:4] C,8- | 
[V:1] E8 | 
[V:2] c8 | 
[V:3] G8 | 
[V:4] C,8 | 
[V:1] D8 | 
[V:2] B8- | 
[V:3] G6F2 | 
[V:4] G,,8 | 
[V:1] E8 | 
[V:2] B4c4 | 
[V:3] E8 | 
[V:4] G,8 | 
[V:1] F8 | 
[V:2] d8 | 
[V:3] D8 | 
[V:4] A,8 | 
[V:1] E8 | 
[V:2] c4A4- | 
[V:3] E8 | 
[V:4] A,,8 | 
[V:1] D4D4- | 
[V:2] A4A4 | 
[V:3] F8 | 
[V:4] z8 | 
[V:1] D4^C4 | 
[V:2] A8 | 
[V:3] E8 | 
[V:4] A,,8 | 
[V:1] D8 | 
[V:2] F2G3A_B2- | 
[V:3] D4D4- | 
[V:4] _B,,4G,,4 | 
[V:1] z8 | 
[V:2] BAF3GA2- | 
[V:3] D4^C4 | 
[V:4] _B,,4A,,4 | 
[V:1] z8 | 
[V:2] A2GFG4 | 
[V:3] D8 | 
[V:4] _B,,8 | 
[V:1] z4C4 | 
[V:2] A3GA_Bc2- | 
[V:3] z8 | 
[V:4] A,,8 | 
[V:1] E4G4 | 
[V:2] c2_BA_B2AG | 
[V:3] z8 | 
[V:4] z4G,,4 | 
[V:1] A4A4 | 
[V:2] F4c4- | 
[V:3] z4C4 | 
[V:4] D,4A,,4 | 
[V:1] G3AB4 | 
[V:2] c4d4 | 
[V:3] E4G4 | 
[V:4] C,2B,,A,,G,,4 | 
[V:1] c8 | 
[V:2] z2c4BA | 
[V:3] A4A4 | 
[V:4] F,,4F,4 | 
[V:1] B8 | 
[V:2] e6d2 | 
[V:3] G3AB4 | 
[V:4] z2E,4G,2 | 
[V:1] A4z4 | 
[V:2] f4e4 | 
[V:3] c8 | 
[V:4] F,2E,D,C,2A,,2 | 
[V:1] z8 | 
[V:2] z2E2D2G2- | 
[V:3] B8 | 
[V:4] E,4z4 | 
[V:1] A4_B4 | 
[V:2] G2^F2G4 | 
[V:3] A4z4 | 
[V:4] D,4G,,4 | 
[V:1] A4G4 | 
[V:2] F4z2c2- | 
[V:3] z8 | 
[V:4] D,4E,2C,2 | 
[V:1] F4G4 | 
[V:2] c2A2d4 | 
[V:3] A4_B4 | 
[V:4] D,4G,,4 | 
[V:1] E8 | 
[V:2] c4c4 | 
[V:3] A4G4 | 
[V:4] A,,3B,,C,4 | 
[V:1] D8 | 
[V:2] A2_B6 | 
[V:3] F4G4 | 
[V:4] D,2_B,,4A,,G,, | 
[V:1] z4C4 | 
[V:2] G2c3_BAG | 
[V:3] E8 | 
[V:4] C,_B,,A,,G,,A,,4 | 
[V:1] D6E2 | 
[V:2] F2_B3cd2- | 
[V:3] D8 | 
[V:4] _B,,4G,,4 | 
[V:1] F4E4 | 
[V:2] dcA3_Bc2 | 
[V:3] z4C4 | 
[V:4] D,4A,,4 | 
[V:1] z4z2C2 | 
[V:2] F4G2A2- | 
[V:3] D6E2 | 
[V:4] z2_B,,4A,,2 | 
[V:1] D4E4 | 
[V:2] A2F2G4 | 
[V:3] F4E4 | 
[V:4] D,4C,4- | 
[V:1] G6FE | 
[V:2] E4z4 | 
[V:3] z4z2C2 | 
[V:4] C,2_B,,A,,G,,2C,2- | 
[V:1] F4E4 | 
[V:2] z4G4 | 
[V:3] D4E4 | 
[V:4] C,2B,,2C,4 | 
[V:1] D2E3DCB, | 
[V:2] D2G2E4 | 
[V:3] G6FE | 
[V:4] B,,2C,3B,,A,,G,, | 
[V:1] A,4z2E2 | 
[V:2] z2D2G2A2- | 
[V:3] F4E4 | 
[V:4] D,4C,4 | 
[V:1] F2G4A2- | 
[V:2] A2G2c4 | 
[V:3] D2E3DCB, | 
[V:4] z8 | 
[V:1] A2GFE4 | 
[V:2] c2BAG2A2- | 
[V:3] A,4z2E2 | 
[V:4] z2A,,2C,4 | 
[V:1] D2E2G2F2- | 
[V:2] ABc4d2- | 
[V:3] F2G4A2- | 
[V:4] D,2C,2E,2D,2- | 
[V:1] F2EDD2^C2 | 
[V:2] d2c2A4- | 
[V:3] A2GFE4 | 
[V:4] D,2D,2A,,4 | 
[V:1] D8 |]  
[V:2] A8 |]  
[V:3] D8 |]  
[V:4] D,8 |]  



